symbols/web/amp_stories/materialsymbolsoutlined/amp_stories_wght700gradN25_20px.svg

<svg xmlns="http://www.w3.org/2000/svg" height="20" width="20"><path d="M5.271 17.188V2.812h9.458v14.376Zm-3.854-1.542V4.354h2.604v11.292Zm14.562 0V4.354h2.604v11.292Zm-8.104-1.021h4.25v-9.25h-4.25Zm0 0v-9.25 9.25Z"/></svg>

<svg xmlns="http://www.w3.org/2000/svg" height="20" width="20"><path d="M5.271 17.188V2.812H14.729V17.188ZM1.417 15.646V4.354H4.021V15.646ZM15.979 15.646V4.354H18.583V15.646ZM7.875 14.625H12.125V5.375H7.875ZM7.875 14.625V5.375V14.625Z"/></svg>
